X: 1
T: Thomond Bridge
M: 4/4
L: 1/8
S: Lorna LaVerne <Muse1950@AOL.COM>
D: Moving Cloud
R: Hornpipe
K: D
|: (3ABc | dAFD GBAG | (3FAF D2 D2 de | fedc dfed | (3cec A2 A2G2 |
| (3FAd f2 (3EAc e2 | (3DFA d2 (3CEA c2 | cdef gABc |d2f2d2 :|
|: AG | Fd (3dcd Ad (3dcd | fedc dcBA | Ge (3efe Eeef | gfed ecAG |
| Fd (3dcd Ad (3dcd | fedc dcBA |(3GAB AG FEDC | (3EFE D2 D2 :|
